X: 20442
M: C|
L: 1/8
K: D
dfaf gfef | fdBG FAAc | BABG FAAf | gfge dcBA |\
dfaf gfef | fdBG FAAc | BABG FAAg | fdec d2 :|
|: a2 |\
a2fa dafa | dafa bagf | g2eg cgeg | cgeg aggf |\
a2fa dafa | dafa bagf | g2gg gbag | fedc | d2d2 d2 :|


